X: 6
T: Frank's
Z: velay-b
S: https://thesession.org/tunes/646#setting30966
R: reel
M: 4/4
L: 1/8
K: Amaj
Ac BA F2 AF|EF AB cA Bc |d3 f ec Ae |fa ec (3Bcd cB |
Ac BA F2 AF|EF AB cA Bc |d3 f ec Ac |1 BA GB A2 (3EFG :|2 BA GB Ae fg ||
aAA gAA fA |ef fe cA Bc |d3 f ec Ac |Bc de fe ce |
[1 aAA gAA fA |ef fe cA Bc |df (3fff ec Ac |BA GB Ae fg :|
[2 Ac BA F3 A |EF AB cA Bc |d3 f ec Ac |BA GB A3 E||
